dist/img/townhouse.svg

<svg width="100" height="80" viewBox="0 0 100 80" fill="none" xmlns="http://www.w3.org/2000/svg">
<path d="M42.0044 42.0063H57.9956C59.665 42.0063 61.023 40.6483 61.023 38.9789V24.8018C61.023 23.1324 59.665 21.7744 57.9956 21.7744H42.0044C40.3351 21.7744 38.9771 23.1324 38.9771 24.8018V38.9789C38.9771 40.6481 40.3353 42.0063 42.0044 42.0063ZM57.9958 39.0766H42.0046C41.9509 39.0766 41.9069 39.0328 41.9069 38.9789V36.6207H58.0935V38.9789C58.0935 39.0326 58.0495 39.0766 57.9958 39.0766ZM58.0935 24.8018V33.691H51.4649V24.7041H57.9958C58.0495 24.7041 58.0935 24.7479 58.0935 24.8018ZM42.0044 24.7041H48.5353V33.691H41.9067V24.8018C41.9067 24.7479 41.9507 24.7041 42.0044 24.7041Z" fill="black"/>
<path d="M50.2483 18.2654C52.4022 18.2654 54.1545 16.513 54.1545 14.3591C54.1545 12.2052 52.4022 10.4529 50.2483 10.4529C48.0944 10.4529 46.342 12.2052 46.342 14.3591C46.342 16.513 48.0944 18.2654 50.2483 18.2654ZM50.2483 13.3826C50.7868 13.3826 51.2249 13.8207 51.2249 14.3591C51.2249 14.8976 50.7868 15.3357 50.2483 15.3357C49.7098 15.3357 49.2717 14.8976 49.2717 14.3591C49.2717 13.8207 49.71 13.3826 50.2483 13.3826Z" fill="black"/>
<path d="M28.6663 38.9789V24.8018C28.6663 23.1324 27.3083 21.7744 25.6389 21.7744H9.64771C7.97837 21.7744 6.62036 23.1324 6.62036 24.8018V38.9789C6.62036 40.6483 7.97837 42.0063 9.64771 42.0063H25.6389C27.3081 42.0063 28.6663 40.6481 28.6663 38.9789ZM25.7366 24.8018V33.691H19.1081V24.7041H25.6389C25.6926 24.7041 25.7366 24.7479 25.7366 24.8018ZM9.64771 24.7041H16.1786V33.691H9.55005V24.8018C9.55005 24.7479 9.5938 24.7041 9.64771 24.7041ZM9.55005 38.9789V36.6207H25.7366V38.9789C25.7366 39.0328 25.6926 39.0766 25.6389 39.0766H9.64771C9.5938 39.0766 9.55005 39.0326 9.55005 38.9789Z" fill="black"/>
<path d="M17.8914 18.2654C20.0453 18.2654 21.7976 16.513 21.7976 14.3591C21.7976 12.2052 20.0453 10.4529 17.8914 10.4529C15.7375 10.4529 13.9851 12.2052 13.9851 14.3591C13.9851 16.513 15.7375 18.2654 17.8914 18.2654ZM17.8914 13.3826C18.4298 13.3826 18.8679 13.8207 18.8679 14.3591C18.8679 14.8976 18.4298 15.3357 17.8914 15.3357C17.3529 15.3357 16.9148 14.8976 16.9148 14.3591C16.9148 13.8207 17.3531 13.3826 17.8914 13.3826Z" fill="black"/>
<path d="M98.8187 16.091L97.1484 14.3015V4.0144C97.1484 2.5605 95.9656 1.37769 94.5117 1.37769H91.7695C90.3156 1.37769 89.1328 2.5605 89.1328 4.0144V5.71401L85.5693 1.89624C84.7414 1.00815 83.5703 0.498779 82.3564 0.498779C81.1426 0.498779 79.9715 1.00815 79.1439 1.89585L66.1785 15.7884L64.791 14.3017V4.0144C64.791 2.5605 63.6082 1.37769 62.1543 1.37769H59.4121C57.9582 1.37769 56.7754 2.5605 56.7754 4.0144V5.71265L53.2129 1.89526C52.3848 1.00796 51.2137 0.498975 50 0.498975C48.7863 0.498975 47.6152 1.00796 46.7871 1.89526L33.8217 15.7884L32.4357 14.3033V4.0144C32.4357 2.5605 31.2529 1.37769 29.799 1.37769H27.0547C25.6008 1.37769 24.418 2.5605 24.418 4.0144V5.71167L20.8562 1.89507C20.0281 1.00776 18.857 0.498779 17.6432 0.498779C16.4295 0.498779 15.2586 1.00776 14.4307 1.89507L1.18164 16.0917C0.419531 16.9083 0 17.9732 0 19.09V76.0835C0 77.9681 1.5334 79.5015 3.41797 79.5015L96.582 79.5007C98.4666 79.5007 100 77.9673 100 76.0828V62.2644C100 61.4554 99.3443 60.7996 98.5352 60.7996C97.726 60.7996 97.0703 61.4554 97.0703 62.2644V76.0828C97.0703 76.3519 96.8514 76.5711 96.582 76.5711H92.0621V66.3304C92.0621 60.9789 87.7084 56.6251 82.3568 56.6251C77.0053 56.6251 72.6516 60.9791 72.6516 66.3304V76.5711H67.6432V49.45H97.0703V55.4285C97.0703 56.2375 97.726 56.8933 98.5352 56.8933C99.3443 56.8933 100 56.2375 100 55.4285V19.0906C100 17.974 99.5809 16.9089 98.8187 16.091ZM92.0625 4.30737H94.2188V11.1628L92.0625 8.85269V4.30737ZM59.7051 4.30737H61.8613V11.1625L59.7051 8.85191V4.30737ZM35.6805 18.0906L48.9291 3.89409C49.2092 3.5939 49.5896 3.42866 50 3.42866C50.4104 3.42866 50.791 3.59409 51.0709 3.89409L64.3195 18.0906C64.5723 18.3613 64.7117 18.7142 64.7131 19.0843C64.7131 19.0865 64.7129 19.0886 64.7129 19.0908C64.7129 19.0947 64.7135 19.0982 64.7135 19.1021V46.5205H35.2865V19.09C35.2865 18.7177 35.4264 18.3626 35.6805 18.0906ZM27.3477 4.30737H29.5061V11.1638L27.3477 8.85112V4.30737ZM2.92969 76.0835V49.45H21.5898C22.399 49.45 23.0547 48.7941 23.0547 47.9851C23.0547 47.1761 22.399 46.5203 21.5898 46.5203H2.92969V19.09C2.92969 18.7177 3.06973 18.3626 3.32363 18.0906L16.5725 3.8939C16.8525 3.5939 17.2328 3.42866 17.6432 3.42847C18.0537 3.42847 18.4342 3.5939 18.7141 3.8939L31.9627 18.0904C32.2168 18.3628 32.3568 18.7177 32.3568 19.09V46.5203H28.4258C27.6166 46.5203 26.9609 47.1761 26.9609 47.9851C26.9609 48.7941 27.6166 49.45 28.4258 49.45H32.3568V76.5718H27.3484V66.3304C27.3484 60.9789 22.9947 56.6251 17.6432 56.6251C12.2916 56.6251 7.93789 60.9791 7.93789 66.3304V76.5718H3.41797C3.14863 76.5718 2.92969 76.3527 2.92969 76.0835ZM19.5357 69.489H15.7506V66.3308C15.7506 65.2873 16.5996 64.4382 17.643 64.4382C18.6867 64.4382 19.5355 65.2873 19.5355 66.3308V69.489H19.5357ZM15.7508 72.4187H19.5359V76.5718H15.7508V72.4187ZM17.6432 61.5087C14.9842 61.5087 12.8211 63.672 12.8211 66.331V76.572H10.8676V66.3306C10.8676 62.5945 13.907 59.555 17.6432 59.555C21.3793 59.555 24.4188 62.5945 24.4188 66.3306V76.572H22.4654V66.331C22.4654 63.6718 20.3021 61.5087 17.6432 61.5087ZM56.7756 76.5718H54.8223V66.3308C54.8223 63.6718 52.659 61.5085 50 61.5085C47.341 61.5085 45.1777 63.6718 45.1777 66.3308V76.5718H43.2244V66.3304C43.2244 62.5943 46.2639 59.5548 50 59.5548C53.7361 59.5548 56.7756 62.5943 56.7756 66.3304V76.5718ZM51.8926 69.489H48.1074V66.3308C48.1074 65.2873 48.9564 64.4382 50 64.4382C51.0436 64.4382 51.8926 65.2873 51.8926 66.3308V69.489ZM48.1074 72.4187H51.8928V76.5718H48.1074V72.4187ZM84.2492 69.489H80.4641V66.3308C80.4641 65.2873 81.3131 64.4382 82.3566 64.4382C83.4002 64.4382 84.249 65.2873 84.249 66.3308V69.489H84.2492ZM80.4643 72.4187H84.2494V76.5711H80.4643V72.4187ZM75.5813 66.3304C75.5813 62.5943 78.6207 59.5548 82.3568 59.5548C86.093 59.5548 89.1324 62.5943 89.1324 66.3304V76.5711H87.1789V66.3308C87.1789 63.6718 85.0158 61.5085 82.3568 61.5085C79.6979 61.5085 77.5346 63.6718 77.5346 66.3308V76.5711H75.5813V66.3304ZM64.7135 76.5718H59.7053V66.3304C59.7053 60.9789 55.3516 56.6251 50 56.6251C44.6484 56.6251 40.2947 60.9791 40.2947 66.3304V76.5718H35.2865V49.45H64.7135V76.5718ZM67.6432 46.5203V19.09C67.6432 19.088 67.643 19.0861 67.643 19.0841C67.6445 18.7136 67.784 18.3613 68.0379 18.09L81.2863 3.89409C81.5664 3.5937 81.9465 3.42827 82.3564 3.42827C82.7664 3.42827 83.1467 3.5937 83.4271 3.89468L96.6762 18.089C96.9303 18.3619 97.0703 18.7175 97.0703 19.0904V46.5201H67.6432V46.5203Z" fill="black"/>
<path d="M90.3523 21.7744H74.3611C72.6917 21.7744 71.3337 23.1324 71.3337 24.8018V38.9789C71.3337 40.6483 72.6917 42.0063 74.3611 42.0063H90.3523C92.0216 42.0063 93.3796 40.6483 93.3796 38.9789V24.8018C93.3796 23.1324 92.0216 21.7744 90.3523 21.7744ZM90.45 24.8018V33.691H83.8214V24.7041H90.3523C90.4062 24.7041 90.45 24.7479 90.45 24.8018ZM74.3611 24.7041H80.8919V33.691H74.2634V24.8018C74.2634 24.7479 74.3074 24.7041 74.3611 24.7041ZM90.3523 39.0766H74.3611C74.3074 39.0766 74.2634 39.0328 74.2634 38.9789V36.6207H90.45V38.9789C90.45 39.0326 90.4062 39.0766 90.3523 39.0766Z" fill="black"/>
<path d="M82.605 18.2654C84.7589 18.2654 86.5112 16.513 86.5112 14.3591C86.5112 12.2052 84.7589 10.4529 82.605 10.4529C80.4511 10.4529 78.6987 12.2052 78.6987 14.3591C78.6987 16.513 80.4511 18.2654 82.605 18.2654ZM82.605 13.3826C83.1435 13.3826 83.5815 13.8207 83.5815 14.3591C83.5815 14.8976 83.1435 15.3357 82.605 15.3357C82.0665 15.3357 81.6284 14.8976 81.6284 14.3591C81.6284 13.8207 82.0667 13.3826 82.605 13.3826Z" fill="black"/>
</svg>

<svg width="100" height="80" fill="none" xmlns="http://www.w3.org/2000/svg"><path d="M42.004 42.006h15.992a3.03 3.03 0 0 0 3.027-3.027V24.802a3.03 3.03 0 0 0-3.027-3.028H42.004a3.03 3.03 0 0 0-3.027 3.028v14.177a3.031 3.031 0 0 0 3.027 3.027Zm15.992-2.93H42.005a.098.098 0 0 1-.098-.097V36.62h16.187v2.358a.098.098 0 0 1-.098.098Zm.097-14.274v8.889h-6.628v-8.987h6.53c.055 0 .099.044.099.098Zm-16.089-.098h6.531v8.987h-6.628v-8.89c0-.053.044-.097.097-.097ZM50.248 18.265a3.91 3.91 0 0 0 3.907-3.906 3.91 3.91 0 0 0-3.907-3.906 3.91 3.91 0 0 0-3.906 3.906 3.91 3.91 0 0 0 3.906 3.906Zm0-4.882a.978.978 0 0 1 0 1.953.978.978 0 0 1 0-1.953ZM28.666 38.979V24.802a3.03 3.03 0 0 0-3.027-3.028H9.648a3.03 3.03 0 0 0-3.028 3.028v14.177a3.03 3.03 0 0 0 3.028 3.027h15.99a3.031 3.031 0 0 0 3.028-3.027Zm-2.93-14.177v8.889h-6.628v-8.987h6.53c.055 0 .099.044.099.098Zm-16.088-.098h6.53v8.987H9.55v-8.89c0-.053.044-.097.098-.097ZM9.55 38.98V36.62h16.187v2.358a.098.098 0 0 1-.098.098H9.648a.098.098 0 0 1-.098-.098ZM17.891 18.265a3.91 3.91 0 0 0 3.907-3.906 3.91 3.91 0 0 0-3.907-3.906 3.91 3.91 0 0 0-3.906 3.906 3.91 3.91 0 0 0 3.906 3.906Zm0-4.882a.978.978 0 0 1 0 1.953.978.978 0 0 1 0-1.953Z" fill="#000"/><path d="m98.819 16.091-1.67-1.79V4.014a2.64 2.64 0 0 0-2.637-2.636h-2.743a2.64 2.64 0 0 0-2.636 2.636v1.7l-3.564-3.818A4.407 4.407 0 0 0 82.356.5c-1.213 0-2.384.51-3.212 1.397L66.178 15.788l-1.387-1.486V4.014a2.64 2.64 0 0 0-2.637-2.636h-2.742a2.64 2.64 0 0 0-2.637 2.636v1.699l-3.562-3.818A4.41 4.41 0 0 0 50 .5a4.41 4.41 0 0 0-3.213 1.396L33.822 15.788l-1.386-1.485V4.014a2.64 2.64 0 0 0-2.637-2.636h-2.744a2.64 2.64 0 0 0-2.637 2.636v1.698l-3.562-3.817A4.41 4.41 0 0 0 17.643.5a4.408 4.408 0 0 0-3.212 1.396L1.18 16.092A4.38 4.38 0 0 0 0 19.09v56.993a3.422 3.422 0 0 0 3.418 3.418h93.164A3.422 3.422 0 0 0 100 76.083V62.264a1.465 1.465 0 1 0-2.93 0v13.819c0 .269-.219.488-.488.488h-4.52v-10.24c0-5.352-4.354-9.706-9.705-9.706-5.352 0-9.705 4.354-9.705 9.705v10.241h-5.009V49.45H97.07v5.978a1.465 1.465 0 1 0 2.93 0V19.091c0-1.117-.42-2.182-1.181-3ZM92.062 4.307h2.157v6.856l-2.156-2.31V4.307Zm-32.357 0h2.156v6.855l-2.156-2.31V4.307ZM35.681 18.091 48.928 3.894c.28-.3.66-.465 1.071-.465.41 0 .791.165 1.07.465l13.25 14.197c.252.27.392.623.393.993V46.52H35.287V19.09c0-.372.14-.727.394-1ZM27.348 4.307h2.158v6.857L27.348 8.85V4.307ZM2.93 76.083V49.45h18.66a1.465 1.465 0 1 0 0-2.93H2.93V19.09c0-.372.14-.727.394-1L16.573 3.895c.28-.3.66-.465 1.07-.466.41 0 .791.166 1.071.466L31.963 18.09c.254.273.394.628.394 1v27.43h-3.931a1.465 1.465 0 1 0 0 2.93h3.93v27.122h-5.008V66.33c0-5.351-4.353-9.705-9.705-9.705-5.351 0-9.705 4.354-9.705 9.705v10.242h-4.52a.489.489 0 0 1-.488-.489Zm16.606-6.594H15.75v-3.158c0-1.044.849-1.893 1.892-1.893 1.044 0 1.892.85 1.892 1.893v3.158Zm-3.785 2.93h3.785v4.153H15.75v-4.153Zm1.892-10.91a4.828 4.828 0 0 0-4.822 4.822v10.241h-1.953V66.331a6.783 6.783 0 0 1 6.775-6.776 6.783 6.783 0 0 1 6.776 6.776v10.241h-1.954V66.331a4.828 4.828 0 0 0-4.822-4.822Zm39.133 15.063h-1.954V66.33A4.828 4.828 0 0 0 50 61.508a4.828 4.828 0 0 0-4.822 4.823v10.24h-1.954v-10.24A6.783 6.783 0 0 1 50 59.554a6.783 6.783 0 0 1 6.776 6.775v10.242Zm-4.883-7.083h-3.786v-3.158c0-1.044.85-1.893 1.893-1.893 1.044 0 1.893.85 1.893 1.893v3.158Zm-3.786 2.93h3.786v4.153h-3.786v-4.153Zm36.142-2.93h-3.785v-3.158c0-1.044.85-1.893 1.893-1.893 1.043 0 1.892.85 1.892 1.893v3.158Zm-3.785 2.93h3.785v4.152h-3.785V72.42Zm-4.883-6.089a6.783 6.783 0 0 1 6.776-6.775 6.783 6.783 0 0 1 6.775 6.775v10.241H87.18v-10.24a4.828 4.828 0 0 0-4.822-4.823 4.828 4.828 0 0 0-4.822 4.823v10.24H75.58v-10.24ZM64.713 76.572h-5.008V66.33c0-5.351-4.353-9.705-9.705-9.705s-9.705 4.354-9.705 9.705v10.242h-5.009V49.45h29.427v27.122Zm2.93-30.052V19.084c.001-.37.141-.723.395-.994L81.286 3.894c.28-.3.66-.466 1.07-.466.41 0 .79.166 1.071.467l13.25 14.194c.253.273.393.629.393 1.001v27.43H67.643Z" fill="#000"/><path d="M90.352 21.774h-15.99a3.03 3.03 0 0 0-3.028 3.028v14.177a3.03 3.03 0 0 0 3.027 3.027h15.991a3.03 3.03 0 0 0 3.028-3.027V24.802a3.03 3.03 0 0 0-3.028-3.028Zm.098 3.028v8.889h-6.629v-8.987h6.531c.054 0 .098.044.098.098Zm-16.089-.098h6.53v8.987h-6.628v-8.89c0-.053.044-.097.098-.097Zm15.991 14.373h-15.99a.098.098 0 0 1-.099-.098V36.62H90.45v2.358a.098.098 0 0 1-.098.098ZM82.605 18.265a3.91 3.91 0 0 0 3.906-3.906 3.91 3.91 0 0 0-3.906-3.906 3.91 3.91 0 0 0-3.906 3.906 3.91 3.91 0 0 0 3.906 3.906Zm0-4.882a.978.978 0 0 1 0 1.953.978.978 0 0 1 0-1.953Z" fill="#000"/></svg>
